X: 20353
Q: "Moderate."
M: C
L: 1/8
K: D
d4 A4 | (F>GA>B A2)d2 |\
(c>Bc>A d2)f2 | {f2}e6 A2 |\
e4 f4 | (e>dc>d e2)f2 |\
e2(f>e) d2c2 | {c2}d6 B2 |\
e4 d4 | (c>Bc>d e2)c2 |\
(B>AB>c d2)B2 | c6 d2 |
e2(f>e) f2A2 | ({A2}^G4 A2)d2 |\
c4 B4 | A6 :|\
|: A2 |\
d2(de) (fe)(dc) | (BAGA B2)B2 |\
(efgf e2)d2 | {d2}c6 A2 |\
d2(3(def) e2(3(efg) | (fefg a2)d2 |\
e4 c4 | d6 :|


